dist/img/svg/date.svg

<svg width="20" height="18" viewBox="0 0 20 18" fill="none" xmlns="http://www.w3.org/2000/svg">
<path d="M17.5184 1.36973H14.9317V0.86814C14.9317 0.38584 14.511 0 13.9853 0C13.4595 0 13.0389 0.38584 13.0389 0.86814V1.36973H6.91903V0.86814C6.91903 0.38584 6.49842 0 5.97266 0C5.4469 0 5.02629 0.38584 5.02629 0.86814V1.36973H2.46057C1.11462 1.36973 0 2.37292 0 3.6269V15.3757C0 16.6104 1.09359 17.6329 2.46057 17.6329H17.5394C18.8854 17.6329 20 16.6297 20 15.3757V3.6269C19.979 2.37292 18.8854 1.36973 17.5184 1.36973ZM2.46057 3.10601H5.04732V3.6076C5.04732 4.0899 5.46793 4.47574 5.99369 4.47574C6.51945 4.47574 6.94006 4.0899 6.94006 3.6076V3.10601H13.0599V3.6076C13.0599 4.0899 13.4805 4.47574 14.0063 4.47574C14.5321 4.47574 14.9527 4.0899 14.9527 3.6076V3.10601H17.5394C17.8549 3.10601 18.1073 3.33752 18.1073 3.6269V5.92264H1.89274V3.6269C1.89274 3.33752 2.14511 3.10601 2.46057 3.10601ZM17.5184 15.8966H2.46057C2.14511 15.8966 1.89274 15.6651 1.89274 15.3757V7.63963H18.1073V15.3757C18.0862 15.6651 17.8339 15.8966 17.5184 15.8966Z" fill="currentColor"/>
</svg>

<svg width="20" height="18" viewBox="0 0 20 18" fill="none" xmlns="http://www.w3.org/2000/svg"><path d="M17.518 1.37h-2.586V.868c0-.482-.421-.868-.947-.868-.525 0-.946.386-.946.868v.502h-6.12V.868c0-.482-.42-.868-.946-.868s-.947.386-.947.868v.502H2.461C1.115 1.37 0 2.373 0 3.627v11.749c0 1.234 1.094 2.257 2.46 2.257h15.08c1.345 0 2.46-1.003 2.46-2.257V3.626c-.021-1.253-1.115-2.256-2.482-2.256zM2.461 3.106h2.586v.502c0 .482.42.868.947.868.525 0 .946-.386.946-.868v-.502h6.12v.502c0 .482.42.868.946.868s.947-.386.947-.868v-.502h2.586c.316 0 .568.232.568.52v2.297H1.893V3.627c0-.29.252-.521.568-.521zm15.057 12.79H2.461c-.316 0-.568-.23-.568-.52V7.64h16.214v7.736a.577.577 0 01-.589.52z" fill="currentColor"/></svg>
